images/illustrations/app_reingeneering.svg

<svg width="72" height="40" viewBox="0 0 72 40" fill="none" xmlns="http://www.w3.org/2000/svg">
<g clip-path="url(#clip0)">
<path d="M11 13H37" stroke="#FF0033" stroke-width="2" stroke-miterlimit="10"/>
<path d="M11 20L37 20" stroke="#FF0033" stroke-width="2" stroke-miterlimit="10"/>
<path d="M11 27L37 27" stroke="#FF0033" stroke-width="2" stroke-miterlimit="10"/>
<path d="M59 1H1V39H59" stroke="#FF0033" stroke-width="2" stroke-miterlimit="10"/>
<path d="M71.0183 22.3214V17.5357H67.9562C67.668 16.3929 67.2357 15.2857 66.5873 14.3214L68.7488 12.1786L65.3264 8.78574L63.165 10.9286C62.1923 10.3214 61.0756 9.85716 59.9228 9.57145V6.53574H55.0955V9.57145C53.9427 9.85716 52.826 10.2857 51.8533 10.9286L49.6919 8.78574L46.2695 12.1786L48.431 14.3214C47.8186 15.2857 47.3503 16.3929 47.0621 17.5357H44V22.3214H47.0621C47.3503 23.4643 47.7826 24.5714 48.431 25.5357L46.2695 27.6786L49.6558 31.0714L51.8533 28.8929C52.826 29.5 53.9427 29.9643 55.0955 30.2143V33.2857H59.9228V30.2143C61.0756 29.9643 62.1923 29.5 63.165 28.8929L65.3625 31.0714L68.7848 27.6786L66.6233 25.5357C67.2357 24.5714 67.7041 23.4643 67.9922 22.3214H71.0183Z" stroke="white" stroke-width="2" stroke-miterlimit="10"/>
<path d="M53.6098 19.9286C53.6098 17.8104 55.3514 16.0714 57.5091 16.0714C59.6668 16.0714 61.4084 17.8104 61.4084 19.9286C61.4084 22.0467 59.6668 23.7857 57.5091 23.7857C55.3514 23.7857 53.6098 22.0467 53.6098 19.9286Z" stroke="white" stroke-width="2"/>
</g>
<defs>
<clipPath id="clip0">
<rect width="72" height="40" fill="white"/>
</clipPath>
</defs>
</svg>

<svg width="72" height="40" fill="none" xmlns="http://www.w3.org/2000/svg"><g clip-path="url(#clip0)" stroke-width="2"><path d="M11 13h26m-26 7h26m-26 7h26M59 1H1v38h58" stroke="#F03" stroke-miterlimit="10"/><path d="M71.018 22.321v-4.785h-3.062c-.288-1.143-.72-2.25-1.369-3.215l2.162-2.142-3.423-3.393-2.161 2.143a11.316 11.316 0 00-3.242-1.358V6.536h-4.828V9.57c-1.152.286-2.269.715-3.242 1.358l-2.161-2.143-3.422 3.393 2.161 2.142a11.118 11.118 0 00-1.369 3.215H44v4.785h3.062c.288 1.143.72 2.25 1.369 3.215l-2.161 2.143 3.386 3.392 2.197-2.178c.973.607 2.09 1.071 3.242 1.321v3.072h4.828v-3.072c1.153-.25 2.27-.714 3.242-1.321l2.197 2.178 3.423-3.392-2.162-2.143a11.114 11.114 0 001.37-3.215h3.025z" stroke="#fff" stroke-miterlimit="10"/><path d="M53.61 19.929c0-2.119 1.741-3.858 3.9-3.858 2.157 0 3.898 1.74 3.898 3.858 0 2.118-1.741 3.857-3.899 3.857s-3.9-1.74-3.9-3.857z" stroke="#fff"/></g><defs><clipPath id="clip0"><path fill="#fff" d="M0 0h72v40H0z"/></clipPath></defs></svg>
